img/services/logistics.svg

<svg width="123" height="122" viewBox="0 0 123 122" fill="none" xmlns="http://www.w3.org/2000/svg">
<path d="M111.205 63.3508C110.542 63.2043 110.138 63.1055 110.166 62.1977C110.485 53.0939 108.255 44.6048 103.767 36.7147C103.56 36.4187 103.446 36.0685 103.437 35.7078C103.427 35.347 103.525 34.9916 103.716 34.6856C111.087 20.3514 102.426 3.05797 86.5403 0.283503C86.1517 0.213425 85.658 0.480992 85.3618 0H79.8797C78.0322 0.637076 76.0573 0.840944 74.2384 1.57677C69.5004 3.41265 65.4795 6.7254 62.771 11.0246C62.3856 11.6266 62.0161 11.8846 61.2771 11.8783C54.2329 11.7972 47.2577 13.2721 40.8493 16.1976C40.1358 16.5162 39.7599 16.3665 39.2375 15.8504C37.2938 13.8948 34.8052 12.5712 32.0971 12.0529C29.389 11.5346 26.5876 11.8456 24.0591 12.9454C21.5136 14.0571 19.362 15.9098 17.8847 18.2621C16.4074 20.6144 15.673 23.3571 15.7771 26.1328C15.8649 29.0121 16.8843 31.7852 18.6822 34.0358C19.1982 34.6729 19.2301 35.1506 18.7937 35.8769C14.7173 42.6264 12.3703 50.2779 11.9611 58.1523C11.9197 58.8658 11.7572 59.1079 11.0055 59.0824C9.89695 59.0219 8.7757 59.0378 7.67038 59.0824C6.74921 59.1096 5.8694 59.4711 5.19529 60.0995C4.52118 60.7278 4.09887 61.5801 4.00719 62.4971C3.95776 63.0105 3.9386 63.5264 3.94984 64.042C3.94984 76.3949 3.94984 88.7489 3.94984 101.104C3.94984 101.916 3.87021 102.378 2.88593 102.528C1.43021 102.741 0.735822 103.987 0 105.108V111.307C1.05755 113.571 2.86684 114.342 5.29729 114.196C7.59394 114.059 9.90332 114.196 12.2064 114.154C12.4916 114.12 12.7803 114.177 13.0306 114.318C13.2809 114.459 13.4798 114.676 13.5984 114.938C16.2709 119.515 20.2877 121.997 25.5977 121.997C30.9077 121.997 34.9181 119.493 37.5938 114.922C37.714 114.665 37.9123 114.452 38.1606 114.314C38.4088 114.176 38.6944 114.12 38.9763 114.154C45.81 114.173 52.6415 114.173 59.471 114.154C59.754 114.129 60.0379 114.193 60.2829 114.337C60.5279 114.481 60.7218 114.698 60.8375 114.957C63.5324 119.512 67.5268 122.01 72.8528 122C78.1118 122 82.0904 119.531 84.782 115.014C85.1547 114.377 85.5019 114.116 86.2377 114.151C87.6266 114.215 89.0186 114.189 90.4074 114.151C92.7646 114.11 94.3764 112.559 94.456 110.214C94.577 106.595 94.5675 102.983 93.338 99.5112C93.0194 98.6257 93.2551 98.0969 93.9495 97.4885C96.29 95.4545 98.393 93.1624 100.218 90.6559C100.782 89.8723 101.037 90.0379 101.518 90.6973C103.487 93.3857 105.5 96.0423 107.5 98.7085C107.733 99.027 107.988 99.3137 108.296 99.6928C112.189 94.472 116.234 89.4709 119.812 84.1481C125.195 76.1879 120.608 65.4277 111.205 63.3508ZM80.2365 4.08685C90.847 2.88914 100.374 9.96067 102.075 20.3577C103.002 26.0245 101.887 31.29 98.3708 35.8706C93.3475 42.4197 88.1936 48.8701 83.1002 55.3651C82.9731 55.5595 82.8602 55.7628 82.7625 55.9735C77.3219 49.023 72.0054 42.3082 66.7814 35.5169C64.3446 32.3507 63.2361 28.6557 63.0259 24.6867C62.4812 14.4552 70.193 5.22084 80.2365 4.08685ZM23.0239 18.2554C24.7704 16.6938 27.0183 15.809 29.3607 15.7611C31.703 15.7131 33.9852 16.5053 35.7941 17.9942C39.5815 21.1414 40.6422 26.5693 37.9187 30.6497C35.3704 34.4722 32.4654 38.0557 29.71 41.7412C29.6718 41.7953 29.573 41.8081 29.4488 41.8686C26.754 38.2564 23.9636 34.7015 21.3803 31.0033C18.5803 26.9929 19.3734 21.5077 23.0239 18.2554ZM11.9356 107.029C11.8793 107.421 11.8548 107.817 11.8623 108.214C11.8623 110.227 11.8623 110.227 9.80456 110.227H8.02395C6.95685 110.227 5.88658 110.185 4.81948 110.227C4.12825 110.262 3.97533 110.001 3.9594 109.348C3.88614 106.29 3.86703 106.29 6.86766 106.29C8.32974 106.29 9.79503 106.315 11.2571 106.29C11.8464 106.274 12.0344 106.449 11.9356 107.029ZM35.466 108.44C35.4108 111.047 34.3243 113.526 32.4447 115.333C30.565 117.14 28.0456 118.129 25.4384 118.082C24.1377 118.059 22.8545 117.777 21.6632 117.255C20.4718 116.732 19.3959 115.978 18.4977 115.037C17.5996 114.096 16.8969 112.986 16.4305 111.772C15.964 110.557 15.7431 109.262 15.7803 107.962C15.9205 102.547 20.4915 98.2976 26.0373 98.4409C31.2613 98.5779 35.638 103.219 35.466 108.44ZM38.9954 102.349C38.711 102.378 38.4246 102.317 38.177 102.174C37.9294 102.031 37.7332 101.814 37.6161 101.553C32.1755 92.0988 19.0836 92.1339 13.6047 101.614C13.4962 101.86 13.3106 102.066 13.0758 102.198C12.8409 102.331 12.5694 102.384 12.3019 102.349C11.1518 102.287 9.9991 102.287 8.84895 102.349C8.03668 102.404 7.89334 102.104 7.89334 101.356C7.92201 94.1662 7.89334 86.9768 7.89334 79.7906C7.89334 74.5474 7.91565 69.3043 7.87106 64.0612C7.87106 63.1724 8.08129 62.9399 8.97956 62.9494C13.507 63.0004 18.0345 63.0004 22.562 62.9494C23.4922 62.9494 23.661 63.217 23.6514 64.0803C23.6068 68.6481 23.6323 73.2159 23.6323 77.9908C26.6743 76.4746 29.5826 75.0539 32.459 73.5663C32.7706 73.3741 33.1296 73.2722 33.4958 73.2722C33.862 73.2722 34.221 73.3741 34.5327 73.5663C37.3995 75.0634 40.3109 76.4682 43.3466 77.9749V64.7555C43.3466 62.9686 43.3466 62.9686 45.1782 62.9686C49.4689 62.9686 53.7564 62.9908 58.0471 62.9494C58.8753 62.9494 59.111 63.1565 59.1079 64.0006C59.0824 76.4321 59.0824 88.8635 59.1079 101.295C59.1079 102.133 58.8785 102.353 58.0503 102.346C51.7008 102.321 45.3491 102.322 38.9954 102.349ZM39.384 71.6009C37.5779 70.6995 35.9151 69.8936 34.2874 69.0526C34.0625 68.9064 33.8007 68.8268 33.5325 68.8229C33.2642 68.8189 33.0003 68.8908 32.7712 69.0303C31.1434 69.9095 29.4647 70.6931 27.6236 71.6073V63.4464C27.6236 62.9845 27.9421 62.9781 28.2607 62.9781C31.7646 62.9781 35.2398 62.9781 38.7278 62.9781C39.3904 62.9781 39.3935 63.3158 39.3904 63.7904C39.3776 66.3132 39.384 68.8615 39.384 71.6009ZM59.162 109.459C59.2385 110.138 58.9709 110.236 58.3816 110.233C52.2763 110.216 46.1699 110.216 40.0625 110.233C39.4254 110.233 39.2693 110.036 39.3267 109.415C39.4143 108.626 39.4143 107.83 39.3267 107.041C39.2311 106.318 39.556 106.29 40.1039 106.293C43.1969 106.293 46.2899 106.293 49.3829 106.293C52.3548 106.293 55.33 106.318 58.3019 106.274C59.0505 106.274 59.2576 106.449 59.1652 107.194C59.0758 107.947 59.0747 108.707 59.162 109.459ZM72.6903 118.082C67.2433 117.955 62.8793 113.457 63.0068 108.093C63.1342 102.566 67.6638 98.304 73.2637 98.4409C78.4941 98.5747 82.8198 103.136 82.7083 108.427C82.6506 111.033 81.5651 113.51 79.6885 115.318C77.8118 117.127 75.2963 118.12 72.6903 118.082ZM83.6385 99.9253C79.0101 93.4335 69.7916 92.6881 63.784 97.9345C63.5865 98.1065 63.4655 98.3932 62.9972 98.3804C62.9972 90.7801 62.9972 83.2403 62.9972 75.7005C62.9972 75.0411 63.1469 74.8118 63.8445 74.815C69.7215 74.8436 75.5954 74.815 81.4724 74.8405C82.7466 74.8405 83.2913 75.3851 83.6735 76.8855C84.1417 78.733 84.1418 78.733 82.2178 78.733C79.8765 78.733 77.5353 78.733 75.1908 78.733C72.5183 78.7553 70.916 80.3735 70.8842 83.0524C70.8842 84.1641 70.8651 85.2821 70.8842 86.3875C70.932 88.9167 72.5629 90.5508 75.0857 90.5667C78.6183 90.5858 82.1509 90.6144 85.6835 90.5444C86.7251 90.5221 87.1902 90.7451 87.4323 91.844C88.1394 95.0517 88.9772 98.2339 89.8085 101.4C90.006 102.146 89.8691 102.451 89.0759 102.333C89.0357 102.329 88.9951 102.329 88.9549 102.333C86.6741 102.627 85.1611 102.044 83.6385 99.9126V99.9253ZM84.2437 82.7243C84.5367 82.7243 84.9827 82.5363 85.0974 82.8995C85.4515 84.0299 85.746 85.1783 85.9797 86.3397C86.0562 86.741 85.572 86.5913 85.3426 86.5945C83.6799 86.6105 82.0171 86.5945 80.3544 86.5945C78.8094 86.5945 77.2645 86.569 75.7196 86.5945C75.0825 86.5945 74.8372 86.5021 74.8245 85.779C74.7735 82.6924 74.7449 82.6924 77.8315 82.6924C79.9689 82.6956 82.1063 82.6892 84.2437 82.7051V82.7243ZM88.4548 110.246C86.5945 110.246 86.5945 110.246 86.6104 108.363C86.6104 106.318 86.6104 106.318 88.6395 106.318C90.5858 106.318 90.5858 106.318 90.5858 108.306C90.5858 110.227 90.5858 110.227 88.4548 110.227V110.246ZM97.4057 85.177C98.2084 86.2632 98.2848 86.9226 97.4248 87.9802C95.7461 90.0411 94.077 92.0957 92.0096 94.0324C91.3726 91.4841 90.7355 89.0887 90.1494 86.6773C89.2479 83.0651 88.3656 79.4465 87.4609 75.8471C86.6391 72.5789 84.4889 70.8842 81.1188 70.8778C75.4361 70.8778 69.7566 70.8492 64.0802 70.897C63.1597 70.897 62.9526 70.6389 62.9813 69.7661C63.045 67.6638 63.0099 65.5583 63.0004 63.4527C63.0004 60.6337 61.481 59.1111 58.6619 59.1111C44.8395 59.1111 31.0181 59.1185 17.1979 59.1333C16.1021 59.1333 15.8313 58.8977 15.9237 57.7668C16.4875 50.8195 18.472 44.2194 21.8357 38.5048C22.2371 38.6609 22.3996 39.0496 22.6321 39.3617C24.7822 42.2286 26.9355 45.0636 29.057 47.9368C29.4361 48.4496 29.6272 48.542 30.054 47.9654C33.6471 43.1205 37.3549 38.3615 40.8525 33.4496C43.5823 29.6272 44.0665 25.3333 42.4452 20.8865C42.1617 20.1061 42.2923 19.8513 43.0472 19.5264C48.2316 17.2968 53.7811 16.0379 59.42 15.8122C60.2036 15.7772 60.4139 15.8441 60.159 16.7392C57.856 24.881 59.2034 32.3475 64.4529 39.0368C70.5051 46.7486 76.5574 54.4445 82.6988 62.2614L100.734 39.3267C102.905 43.2248 104.465 47.4328 105.36 51.8038C106.074 55.227 106.394 58.7207 106.315 62.2168C106.315 62.9303 106.076 63.2298 105.36 63.4018C95.3384 65.8035 91.277 76.8568 97.4057 85.1579V85.177ZM116.308 82.4567C113.817 85.846 111.265 89.1874 108.774 92.5734C108.325 93.1819 108.137 93.0035 107.774 92.5225C105.289 89.1747 102.748 85.8778 100.301 82.5045C99.0869 80.8393 98.4327 78.8316 98.4327 76.7708C98.4327 74.7099 99.0869 72.7023 100.301 71.0371C101.516 69.3503 103.235 68.092 105.21 67.443C107.185 66.794 109.315 66.7876 111.294 67.4249C115.295 68.6991 118.009 72.3686 118.095 76.2197C118.133 78.7617 117.569 80.727 116.308 82.4376V82.4567Z" fill="#5C5C5C"/>
<path d="M49.2491 51.1987C47.2487 51.1987 47.2487 51.1987 47.2487 53.0239C47.2487 55.104 47.2487 55.104 49.3447 55.104C51.2336 55.104 51.2336 55.104 51.2336 53.1641C51.2336 51.2242 51.2336 51.1987 49.2491 51.1987Z" fill="#5C5C5C"/>
<path d="M57.152 51.1987H56.9163C55.1229 51.1987 55.1229 51.1987 55.1229 52.9952C55.1229 55.104 55.1229 55.104 57.1902 55.104C59.1015 55.104 59.1015 55.104 59.1015 53.1928C59.1046 51.1987 59.1046 51.1987 57.152 51.1987Z" fill="#5C5C5C"/>
<path d="M64.8702 51.1987C62.994 51.1987 62.994 51.1987 62.994 53.0335C62.994 55.104 62.994 55.104 65.1027 55.104C66.9757 55.104 66.9757 55.104 66.9757 53.2724C66.9757 51.1987 66.9757 51.1987 64.8702 51.1987Z" fill="#5C5C5C"/>
<path d="M82.6892 39.3522C86.8627 39.3564 90.8672 37.7038 93.8231 34.7575C96.7789 31.8112 98.4444 27.8122 98.4537 23.6387C98.447 19.4653 96.7876 15.4645 93.8387 12.5114C90.8897 9.55824 86.8913 7.89325 82.7179 7.88062C80.6511 7.87853 78.6041 8.28387 76.6941 9.07345C74.7841 9.86303 73.0484 11.0214 71.5864 12.4822C70.1243 13.9431 68.9646 15.6778 68.1734 17.5872C67.3823 19.4966 66.9754 21.5432 66.9758 23.61C66.9695 25.6767 67.3714 27.7242 68.1585 29.6351C68.9456 31.546 70.1023 33.2826 71.5623 34.7453C73.0224 36.208 74.7569 37.3679 76.6663 38.1585C78.5758 38.949 80.6226 39.3547 82.6892 39.3522ZM82.6383 11.84C84.1871 11.8287 85.7228 12.1235 87.1574 12.7075C88.5919 13.2915 89.8969 14.1531 90.9974 15.243C92.0979 16.3329 92.9722 17.6294 93.5702 19.0582C94.1681 20.487 94.4778 22.0198 94.4815 23.5686C94.4959 26.6971 93.2695 29.7038 91.0711 31.9297C88.8726 34.1557 85.8814 35.4193 82.7529 35.4437C76.3121 35.4978 70.9352 30.1719 70.8779 23.6833C70.8761 20.5563 72.1121 17.5558 74.3157 15.3373C76.5193 13.1188 79.5114 11.8626 82.6383 11.8432V11.84Z" fill="#5C5C5C"/>
<path d="M29.589 31.4843C31.1524 31.4725 32.6478 30.8436 33.7497 29.7346C34.8516 28.6255 35.4708 27.1261 35.4724 25.5627C35.4581 23.9983 34.8233 22.5036 33.7076 21.407C32.5919 20.3104 31.0865 19.7016 29.5221 19.7143C27.9589 19.7211 26.4622 20.3476 25.3604 21.4566C24.2586 22.5656 23.6417 24.0663 23.6451 25.6296C23.6602 27.1931 24.2942 28.687 25.4081 29.7842C26.5221 30.8815 28.0254 31.4928 29.589 31.4843ZM29.589 23.6259C30.1075 23.6343 30.6016 23.8473 30.9638 24.2184C31.326 24.5895 31.5268 25.0887 31.5225 25.6073C31.5175 26.1261 31.3086 26.6221 30.9408 26.988C30.573 27.354 30.076 27.5606 29.5571 27.5631C29.0404 27.5522 28.549 27.3368 28.1907 26.9643C27.8324 26.5917 27.6365 26.0922 27.6459 25.5754C27.6447 25.3211 27.6935 25.069 27.7897 24.8335C27.8859 24.5981 28.0275 24.3839 28.2064 24.2031C28.3854 24.0224 28.5982 23.8787 28.8326 23.7802C29.0671 23.6817 29.3187 23.6304 29.5731 23.6291L29.589 23.6259Z" fill="#5C5C5C"/>
<path d="M108.29 70.8523C106.726 70.8681 105.231 71.4976 104.126 72.6051C103.021 73.7127 102.396 75.2097 102.384 76.7739C102.399 78.3364 103.025 79.8311 104.129 80.9366C105.234 82.0421 106.728 82.6702 108.29 82.686C109.854 82.6718 111.35 82.0426 112.454 80.9345C113.558 79.8264 114.181 78.3285 114.189 76.7644C114.179 75.2019 113.554 73.7064 112.45 72.6003C111.347 71.4943 109.853 70.8665 108.29 70.8523ZM108.29 78.7074C108.034 78.7139 107.779 78.6686 107.54 78.5745C107.302 78.4803 107.085 78.3391 106.902 78.1593C106.719 77.9795 106.574 77.7647 106.476 77.5278C106.378 77.2909 106.329 77.0367 106.331 76.7803C106.326 76.5237 106.372 76.2686 106.467 76.0302C106.562 75.7918 106.704 75.5751 106.885 75.3928C107.066 75.2106 107.281 75.0666 107.519 74.9695C107.756 74.8724 108.011 74.8242 108.268 74.8276C108.524 74.8221 108.778 74.868 109.016 74.9628C109.254 75.0576 109.471 75.1992 109.653 75.3792C109.835 75.5593 109.979 75.7741 110.077 76.011C110.174 76.2478 110.223 76.5019 110.22 76.758C110.226 77.0138 110.179 77.268 110.084 77.5056C109.989 77.7432 109.848 77.9593 109.668 78.1411C109.488 78.3229 109.273 78.4667 109.036 78.564C108.8 78.6613 108.546 78.7101 108.29 78.7074Z" fill="#5C5C5C"/>
<path d="M25.5881 102.353C24.8132 102.357 24.0468 102.515 23.3329 102.816C22.619 103.118 21.9716 103.557 21.428 104.109C20.8843 104.662 20.455 105.316 20.1648 106.034C19.8745 106.753 19.729 107.522 19.7366 108.296C19.7387 109.071 19.8935 109.837 20.192 110.551C20.4906 111.265 20.9271 111.913 21.4765 112.459C22.026 113.004 22.6776 113.436 23.394 113.729C24.1105 114.022 24.8777 114.171 25.6518 114.167C27.215 114.155 28.7096 113.523 29.8069 112.41C30.9042 111.296 31.5144 109.793 31.5034 108.23C31.4966 106.666 30.8701 105.17 29.7611 104.068C28.6521 102.966 27.1514 102.349 25.5881 102.353ZM25.5691 110.205C25.0514 110.193 24.5595 109.976 24.2013 109.603C23.843 109.229 23.6476 108.728 23.6578 108.21C23.6777 107.692 23.8998 107.201 24.2766 106.844C24.6534 106.487 25.155 106.291 25.6742 106.299C26.1905 106.32 26.6785 106.54 27.0351 106.914C27.3918 107.288 27.5891 107.786 27.5854 108.303C27.5687 108.822 27.3473 109.313 26.9695 109.67C26.5917 110.026 26.0882 110.218 25.5691 110.205Z" fill="#5C5C5C"/>
<path d="M72.805 102.352C72.0306 102.36 71.2654 102.521 70.5531 102.825C69.8409 103.129 69.1957 103.571 68.6545 104.125C68.1133 104.679 67.6867 105.334 67.3992 106.053C67.1117 106.772 66.9689 107.541 66.979 108.316C66.9835 109.089 67.1407 109.854 67.4414 110.567C67.7421 111.28 68.1804 111.927 68.7314 112.47C69.2823 113.013 69.935 113.442 70.6521 113.733C71.3691 114.024 72.1364 114.17 72.9101 114.164C73.6837 114.156 74.4481 113.996 75.1597 113.692C75.8713 113.389 76.5161 112.948 77.0572 112.395C77.5983 111.842 78.0251 111.188 78.3132 110.47C78.6013 109.752 78.745 108.984 78.7362 108.21C78.7328 107.436 78.5766 106.67 78.2765 105.956C77.9763 105.242 77.5381 104.594 76.9871 104.05C76.436 103.505 75.7829 103.075 75.0653 102.784C74.3476 102.493 73.5795 102.346 72.805 102.352ZM72.805 110.204C72.2868 110.189 71.7954 109.971 71.4376 109.595C71.0797 109.22 70.8843 108.719 70.8938 108.201C70.9161 107.68 71.1412 107.189 71.5209 106.832C71.9006 106.474 72.4049 106.28 72.926 106.29C73.4429 106.315 73.9301 106.539 74.2861 106.914C74.6421 107.29 74.8395 107.788 74.8373 108.306C74.8173 108.828 74.5917 109.32 74.2097 109.676C73.8277 110.032 73.3203 110.222 72.7986 110.204H72.805Z" fill="#5C5C5C"/>
</svg>

<svg xmlns="http://www.w3.org/2000/svg" width="123" height="122" fill="none"><path fill="#5C5C5C" d="M111.205 63.35c-.663-.146-1.067-.245-1.039-1.152.319-9.104-1.911-17.593-6.399-25.483a1.836 1.836 0 0 1-.051-2.03c7.371-14.334-1.29-31.627-17.176-34.401-.388-.07-.882.197-1.178-.284H79.88c-1.848.637-3.823.84-5.642 1.577a23.655 23.655 0 0 0-11.467 9.448c-.385.602-.755.86-1.494.853a47.863 47.863 0 0 0-20.428 4.32c-.713.318-1.09.168-1.611-.348a13.698 13.698 0 0 0-15.179-2.905 13.825 13.825 0 0 0-8.282 13.188 13.312 13.312 0 0 0 2.905 7.903c.516.637.548 1.115.112 1.84a47.895 47.895 0 0 0-6.833 22.276c-.041.714-.204.956-.956.93a35.297 35.297 0 0 0-3.335 0 3.794 3.794 0 0 0-3.663 3.415c-.05.514-.068 1.03-.057 1.545v37.062c0 .812-.08 1.274-1.064 1.424-1.456.213-2.15 1.459-2.886 2.58v6.199c1.058 2.264 2.867 3.035 5.297 2.889 2.297-.137 4.606 0 6.91-.042a1.353 1.353 0 0 1 1.391.784c2.673 4.577 6.69 7.059 12 7.059s9.32-2.504 11.996-7.075a1.35 1.35 0 0 1 1.382-.768c6.834.019 13.666.019 20.495 0a1.365 1.365 0 0 1 1.367.803c2.694 4.555 6.689 7.053 12.015 7.043 5.259 0 9.237-2.469 11.929-6.986.373-.637.72-.898 1.456-.863 1.389.064 2.78.038 4.17 0 2.357-.041 3.968-1.592 4.048-3.937.121-3.619.111-7.231-1.118-10.703-.319-.885-.083-1.414.612-2.022a41.115 41.115 0 0 0 6.268-6.833c.564-.784.819-.618 1.3.041 1.969 2.689 3.982 5.345 5.982 8.011.233.319.488.606.796.985 3.893-5.221 7.938-10.222 11.516-15.545 5.383-7.96.796-18.72-8.607-20.797ZM80.237 4.088c10.61-1.198 20.137 5.874 21.838 16.27.927 5.668-.188 10.933-3.704 15.514-5.023 6.549-10.177 13-15.27 19.494-.128.194-.24.398-.338.608-5.441-6.95-10.758-13.665-15.982-20.456-2.436-3.166-3.545-6.861-3.755-10.83-.545-10.232 7.167-19.466 17.21-20.6ZM23.024 18.255a9.808 9.808 0 0 1 12.77-.26c3.788 3.146 4.848 8.574 2.125 12.655-2.549 3.822-5.454 7.406-8.209 11.091-.038.054-.137.067-.261.128-2.695-3.613-5.485-7.167-8.069-10.866-2.8-4.01-2.007-9.495 1.644-12.748ZM11.936 107.03c-.057.392-.081.788-.074 1.185 0 2.013 0 2.013-2.057 2.013H8.024c-1.067 0-2.137-.042-3.205 0-.69.035-.844-.226-.86-.879-.073-3.058-.092-3.058 2.909-3.058 1.462 0 2.927.025 4.39 0 .588-.016.776.159.678.739Zm23.53 1.411a9.851 9.851 0 0 1-13.803 8.815 9.85 9.85 0 0 1-5.233-5.483 9.844 9.844 0 0 1-.65-3.81c.14-5.415 4.711-9.664 10.257-9.521 5.224.137 9.601 4.778 9.429 9.999Zm3.53-6.091a1.36 1.36 0 0 1-1.38-.796c-5.44-9.454-18.532-9.42-24.011.061a1.248 1.248 0 0 1-1.303.735 32.074 32.074 0 0 0-3.453 0c-.812.055-.956-.245-.956-.993.029-7.19 0-14.38 0-21.565 0-5.244.023-10.487-.022-15.73 0-.889.21-1.121 1.109-1.112 4.527.051 9.055.051 13.582 0 .93 0 1.099.268 1.09 1.131-.045 4.568-.02 9.136-.02 13.91 3.042-1.515 5.95-2.936 8.827-4.424a1.975 1.975 0 0 1 2.074 0c2.867 1.497 5.778 2.902 8.814 4.409v-13.22c0-1.786 0-1.786 1.831-1.786 4.29 0 8.578.022 12.87-.02.827 0 1.063.208 1.06 1.052a9090.678 9090.678 0 0 0 0 37.294c0 .838-.23 1.058-1.058 1.051-6.35-.025-12.7-.024-19.055.003Zm.388-30.748c-1.806-.901-3.469-1.707-5.097-2.548a1.423 1.423 0 0 0-1.516-.023c-1.628.88-3.306 1.663-5.147 2.577v-8.16c0-.463.318-.469.637-.469h10.467c.662 0 .666.338.662.812-.012 2.523-.006 5.072-.006 7.81Zm19.778 37.858c.077.679-.191.777-.78.774-6.106-.017-12.212-.017-18.32 0-.637 0-.793-.197-.735-.818.087-.789.087-1.585 0-2.374-.096-.723.229-.751.777-.748h9.279c2.972 0 5.947.025 8.919-.019.748 0 .956.175.863.92a9.711 9.711 0 0 0-.003 2.265Zm13.528 8.623c-5.447-.127-9.81-4.625-9.683-9.989.127-5.527 4.657-9.789 10.257-9.652 5.23.134 9.556 4.695 9.444 9.986a9.872 9.872 0 0 1-10.018 9.655Zm10.948-18.157c-4.628-6.492-13.846-7.237-19.854-1.99-.197.171-.319.458-.787.445V75.7c0-.659.15-.888.847-.885 5.878.029 11.751 0 17.628.026 1.275 0 1.82.544 2.202 2.044.468 1.848.468 1.848-1.456 1.848H75.19c-2.673.022-4.275 1.64-4.307 4.32 0 1.111-.019 2.23 0 3.335.048 2.529 1.679 4.163 4.202 4.179 3.532.019 7.065.047 10.597-.023 1.042-.022 1.507.201 1.75 1.3.706 3.208 1.544 6.39 2.375 9.556.198.746.061 1.051-.732.933a.612.612 0 0 0-.121 0c-2.28.294-3.794-.289-5.317-2.42v.012Zm.606-17.2c.293 0 .739-.189.853.175.355 1.13.649 2.278.883 3.44.076.401-.408.251-.637.254-1.663.017-3.326 0-4.989 0-1.545 0-3.09-.025-4.634 0-.638 0-.883-.092-.895-.815-.052-3.087-.08-3.087 3.007-3.087 2.137.004 4.274-.003 6.412.013v.02Zm4.21 27.521c-1.86 0-1.86 0-1.844-1.883 0-2.045 0-2.045 2.03-2.045 1.946 0 1.946 0 1.946 1.988 0 1.921 0 1.921-2.131 1.921v.019Zm8.952-25.069c.802 1.086.879 1.746.019 2.803-1.679 2.061-3.348 4.116-5.415 6.052-.637-2.548-1.275-4.943-1.86-7.355-.902-3.612-1.784-7.23-2.69-10.83-.82-3.268-2.971-4.963-6.341-4.97-5.683 0-11.362-.028-17.039.02-.92 0-1.127-.258-1.099-1.13.064-2.103.029-4.209.02-6.314 0-2.82-1.52-4.342-4.34-4.342-13.822 0-27.643.008-41.463.022-1.096 0-1.367-.235-1.274-1.366.564-6.948 2.548-13.548 5.912-19.262.401.156.564.545.796.857 2.15 2.867 4.303 5.702 6.425 8.575.38.513.57.605.997.028 3.593-4.845 7.3-9.604 10.799-14.515 2.73-3.823 3.213-8.117 1.592-12.564-.283-.78-.153-1.035.602-1.36a46.11 46.11 0 0 1 16.373-3.714c.784-.035.994.032.739.927-2.303 8.142-.956 15.608 4.294 22.298 6.052 7.712 12.104 15.407 18.246 23.224l18.035-22.934a43.63 43.63 0 0 1 4.626 12.477 45.918 45.918 0 0 1 .955 10.413c0 .713-.239 1.013-.955 1.185-10.022 2.401-14.083 13.455-7.954 21.756v.019Zm18.902-2.72c-2.491 3.389-5.043 6.73-7.534 10.116-.449.609-.637.43-1-.05-2.485-3.348-5.026-6.645-7.473-10.019a9.733 9.733 0 0 1 0-11.467 9.833 9.833 0 0 1 10.993-3.612c4.001 1.274 6.715 4.944 6.801 8.795.038 2.542-.526 4.507-1.787 6.218v.019Z"/><path fill="#5C5C5C" d="M49.25 51.199c-2.001 0-2.001 0-2.001 1.825 0 2.08 0 2.08 2.096 2.08 1.889 0 1.889 0 1.889-1.94s0-1.965-1.985-1.965ZM57.152 51.199h-.236c-1.793 0-1.793 0-1.793 1.796 0 2.109 0 2.109 2.067 2.109 1.912 0 1.912 0 1.912-1.911.003-1.994.003-1.994-1.95-1.994ZM64.87 51.199c-1.876 0-1.876 0-1.876 1.834 0 2.071 0 2.071 2.109 2.071 1.873 0 1.873 0 1.873-1.832 0-2.073 0-2.073-2.106-2.073ZM82.69 39.352A15.749 15.749 0 0 0 98.453 23.64 15.783 15.783 0 0 0 82.718 7.88 15.726 15.726 0 0 0 66.976 23.61a15.694 15.694 0 0 0 15.713 15.742Zm-.052-27.512a11.758 11.758 0 0 1 11.843 11.729 11.821 11.821 0 0 1-11.728 11.875c-6.44.054-11.818-5.272-11.875-11.76a11.833 11.833 0 0 1 11.76-11.84v-.004ZM29.589 31.484a5.928 5.928 0 0 0 5.883-5.921 5.903 5.903 0 0 0-5.95-5.849 5.903 5.903 0 0 0-5.877 5.916 5.912 5.912 0 0 0 5.944 5.854Zm0-7.858a1.966 1.966 0 0 1 1.352 3.362 1.975 1.975 0 0 1-1.384.575 1.953 1.953 0 0 1-1.911-1.988 1.938 1.938 0 0 1 1.927-1.946l.016-.003ZM108.29 70.852a5.967 5.967 0 0 0-5.906 5.922 5.969 5.969 0 0 0 5.906 5.912 5.955 5.955 0 0 0 5.899-5.922 5.95 5.95 0 0 0-5.899-5.912Zm0 7.855a1.915 1.915 0 0 1-1.814-1.18 1.916 1.916 0 0 1-.145-.747 1.925 1.925 0 0 1 .554-1.387 1.91 1.91 0 0 1 1.383-.565 1.91 1.91 0 0 1 1.952 1.93 1.91 1.91 0 0 1-1.93 1.95ZM25.588 102.353a5.884 5.884 0 0 0-5.851 5.943 5.886 5.886 0 0 0 5.915 5.871 5.899 5.899 0 0 0 5.851-5.937 5.902 5.902 0 0 0-5.915-5.877Zm-.019 7.852a1.96 1.96 0 0 1-1.911-1.995 1.988 1.988 0 0 1 2.016-1.911 1.991 1.991 0 0 1 1.911 2.004 1.968 1.968 0 0 1-2.016 1.902ZM72.805 102.352a5.892 5.892 0 0 0-5.406 3.701 5.888 5.888 0 0 0-.42 2.263 5.881 5.881 0 0 0 8.18 5.376 5.876 5.876 0 0 0 3.154-3.222 5.89 5.89 0 0 0 .423-2.26 5.884 5.884 0 0 0-5.931-5.858Zm0 7.852a1.965 1.965 0 0 1-1.911-2.003 1.996 1.996 0 0 1 2.032-1.911 2.01 2.01 0 0 1 1.911 2.016 1.975 1.975 0 0 1-2.038 1.898h.006Z"/></svg>
